images/50715947.svg

<?xml version="1.0" encoding="UTF-8"?>
<svg xmlns="http://www.w3.org/2000/svg" xmlns:xlink="http://www.w3.org/1999/xlink" width="300pt" height="300pt" viewBox="0 0 300 300" version="1.1">
<defs>
<g>
<symbol overflow="visible" id="glyph0-0">
<path style="stroke:none;" d="M 0.453125 1.59375 L 0.453125 -6.34375 L 4.953125 -6.34375 L 4.953125 1.59375 Z M 0.953125 1.09375 L 4.453125 1.09375 L 4.453125 -5.84375 L 0.953125 -5.84375 Z M 0.953125 1.09375 "/>
</symbol>
<symbol overflow="visible" id="glyph0-1">
<path style="stroke:none;" d="M 0.890625 -6.5625 L 4.65625 -6.5625 L 4.65625 -5.8125 L 1.765625 -5.8125 L 1.765625 -3.875 L 4.375 -3.875 L 4.375 -3.140625 L 1.765625 -3.140625 L 1.765625 0 L 0.890625 0 Z M 0.890625 -6.5625 "/>
</symbol>
<symbol overflow="visible" id="glyph0-2">
<path style="stroke:none;" d="M 0.890625 -6.5625 L 2.078125 -6.5625 L 4.984375 -1.078125 L 4.984375 -6.5625 L 5.84375 -6.5625 L 5.84375 0 L 4.65625 0 L 1.75 -5.484375 L 1.75 0 L 0.890625 0 Z M 0.890625 -6.5625 "/>
</symbol>
<symbol overflow="visible" id="glyph0-3">
<path style="stroke:none;" d="M 0.890625 -6.5625 L 1.765625 -6.5625 L 1.765625 -3.875 L 5 -3.875 L 5 -6.5625 L 5.890625 -6.5625 L 5.890625 0 L 5 0 L 5 -3.125 L 1.765625 -3.125 L 1.765625 0 L 0.890625 0 Z M 0.890625 -6.5625 "/>
</symbol>
</g>
</defs>
<g id="surface23781">
<rect x="0" y="0" width="300" height="300" style="fill:rgb(100%,100%,100%);fill-opacity:1;stroke:none;"/>
<path style="fill:none;stroke-width:1.2;stroke-linecap:butt;stroke-linejoin:miter;stroke:rgb(20%,80%,80%);stroke-opacity:1;stroke-miterlimit:10;" d="M 55.160156 171.058594 L 55.832031 158.402344 "/>
<path style="fill:none;stroke-width:1.2;stroke-linecap:butt;stroke-linejoin:miter;stroke:rgb(0%,0%,0%);stroke-opacity:1;stroke-miterlimit:10;" d="M 55.832031 158.402344 L 56.503906 145.742188 "/>
<path style=" stroke:none;fill-rule:nonzero;fill:rgb(100%,100%,100%);fill-opacity:1;" d="M 52.160156 165.558594 L 58.160156 165.558594 L 58.160156 176.558594 L 52.160156 176.558594 Z M 52.160156 165.558594 "/>
<g style="fill:rgb(20%,80%,80%);fill-opacity:1;">
  <use xlink:href="#glyph0-1" x="52.160156" y="174.22168"/>
</g>
<path style="fill:none;stroke-width:1.2;stroke-linecap:butt;stroke-linejoin:miter;stroke:rgb(0%,0%,0%);stroke-opacity:1;stroke-miterlimit:10;" d="M 56.503906 145.742188 L 35.25 131.917969 "/>
<path style="fill:none;stroke-width:1.2;stroke-linecap:butt;stroke-linejoin:miter;stroke:rgb(0%,0%,0%);stroke-opacity:1;stroke-miterlimit:10;" d="M 57.632812 139.359375 L 40.628906 128.300781 "/>
<path style="fill:none;stroke-width:1.2;stroke-linecap:butt;stroke-linejoin:miter;stroke:rgb(0%,0%,0%);stroke-opacity:1;stroke-miterlimit:10;" d="M 79.101562 134.246094 L 56.503906 145.742188 "/>
<path style="fill:none;stroke-width:1.2;stroke-linecap:butt;stroke-linejoin:miter;stroke:rgb(0%,0%,0%);stroke-opacity:1;stroke-miterlimit:10;" d="M 35.25 131.917969 L 36.59375 106.597656 "/>
<path style="fill:none;stroke-width:1.2;stroke-linecap:butt;stroke-linejoin:miter;stroke:rgb(0%,0%,0%);stroke-opacity:1;stroke-miterlimit:10;" d="M 36.59375 106.597656 L 59.195312 95.105469 "/>
<path style="fill:none;stroke-width:1.2;stroke-linecap:butt;stroke-linejoin:miter;stroke:rgb(0%,0%,0%);stroke-opacity:1;stroke-miterlimit:10;" d="M 41.558594 110.765625 L 59.636719 101.570312 "/>
<path style="fill:none;stroke-width:1.2;stroke-linecap:butt;stroke-linejoin:miter;stroke:rgb(0%,0%,0%);stroke-opacity:1;stroke-miterlimit:10;" d="M 59.195312 95.105469 L 80.449219 108.929688 "/>
<path style="fill:none;stroke-width:1.2;stroke-linecap:butt;stroke-linejoin:miter;stroke:rgb(0%,0%,0%);stroke-opacity:1;stroke-miterlimit:10;" d="M 80.449219 108.929688 L 79.101562 134.246094 "/>
<path style="fill:none;stroke-width:1.2;stroke-linecap:butt;stroke-linejoin:miter;stroke:rgb(0%,0%,0%);stroke-opacity:1;stroke-miterlimit:10;" d="M 74.355469 111.144531 L 73.28125 131.398438 "/>
<path style="fill:none;stroke-width:1.2;stroke-linecap:butt;stroke-linejoin:miter;stroke:rgb(0%,0%,0%);stroke-opacity:1;stroke-miterlimit:10;" d="M 79.101562 134.246094 L 89.730469 141.160156 "/>
<path style="fill:none;stroke-width:1.2;stroke-linecap:butt;stroke-linejoin:miter;stroke:rgb(0%,0%,100%);stroke-opacity:1;stroke-miterlimit:10;" d="M 89.730469 141.160156 L 100.355469 148.070312 "/>
<path style="fill:none;stroke-width:1.2;stroke-linecap:butt;stroke-linejoin:miter;stroke:rgb(0%,0%,100%);stroke-opacity:1;stroke-miterlimit:10;" d="M 100.355469 148.070312 L 111.65625 142.324219 "/>
<path style="fill:none;stroke-width:1.2;stroke-linecap:butt;stroke-linejoin:miter;stroke:rgb(0%,0%,0%);stroke-opacity:1;stroke-miterlimit:10;" d="M 111.65625 142.324219 L 122.953125 136.578125 "/>
<path style=" stroke:none;fill-rule:nonzero;fill:rgb(100%,100%,100%);fill-opacity:1;" d="M 93.355469 142.570312 L 107.355469 142.570312 L 107.355469 153.570312 L 93.355469 153.570312 Z M 93.355469 142.570312 "/>
<g style="fill:rgb(0%,0%,100%);fill-opacity:1;">
  <use xlink:href="#glyph0-2" x="93.355469" y="151.233398"/>
  <use xlink:href="#glyph0-3" x="100.333008" y="151.233398"/>
</g>
<path style="fill:none;stroke-width:1.2;stroke-linecap:butt;stroke-linejoin:miter;stroke:rgb(0%,0%,0%);stroke-opacity:1;stroke-miterlimit:10;" d="M 122.953125 136.578125 L 124.945312 124.058594 "/>
<path style="fill:none;stroke-width:1.2;stroke-linecap:butt;stroke-linejoin:miter;stroke:rgb(0%,0%,100%);stroke-opacity:1;stroke-miterlimit:10;" d="M 124.945312 124.058594 L 126.9375 111.539062 "/>
<path style="fill:none;stroke-width:1.2;stroke-linecap:butt;stroke-linejoin:miter;stroke:rgb(0%,0%,0%);stroke-opacity:1;stroke-miterlimit:10;" d="M 129.246094 135.011719 L 130.839844 124.996094 "/>
<path style="fill:none;stroke-width:1.2;stroke-linecap:butt;stroke-linejoin:miter;stroke:rgb(0%,0%,100%);stroke-opacity:1;stroke-miterlimit:10;" d="M 130.839844 124.996094 L 132.433594 114.980469 "/>
<path style="fill:none;stroke-width:1.2;stroke-linecap:butt;stroke-linejoin:miter;stroke:rgb(0%,0%,100%);stroke-opacity:1;stroke-miterlimit:10;" d="M 145.535156 148.105469 L 134.246094 142.339844 "/>
<path style="fill:none;stroke-width:1.2;stroke-linecap:butt;stroke-linejoin:miter;stroke:rgb(0%,0%,0%);stroke-opacity:1;stroke-miterlimit:10;" d="M 134.246094 142.339844 L 122.953125 136.578125 "/>
<path style="fill:none;stroke-width:1.2;stroke-linecap:butt;stroke-linejoin:miter;stroke:rgb(0%,0%,100%);stroke-opacity:1;stroke-miterlimit:10;" d="M 126.9375 111.539062 L 139.460938 109.566406 "/>
<path style="fill:none;stroke-width:1.2;stroke-linecap:butt;stroke-linejoin:miter;stroke:rgb(0%,0%,0%);stroke-opacity:1;stroke-miterlimit:10;" d="M 139.460938 109.566406 L 151.984375 107.589844 "/>
<path style=" stroke:none;fill-rule:nonzero;fill:rgb(100%,100%,100%);fill-opacity:1;" d="M 123.9375 106.039062 L 130.9375 106.039062 L 130.9375 117.039062 L 123.9375 117.039062 Z M 123.9375 106.039062 "/>
<g style="fill:rgb(0%,0%,100%);fill-opacity:1;">
  <use xlink:href="#glyph0-2" x="123.9375" y="114.702148"/>
</g>
<path style="fill:none;stroke-width:1.2;stroke-linecap:butt;stroke-linejoin:miter;stroke:rgb(0%,0%,0%);stroke-opacity:1;stroke-miterlimit:10;" d="M 151.984375 107.589844 L 163.476562 130.191406 "/>
<path style="fill:none;stroke-width:1.2;stroke-linecap:butt;stroke-linejoin:miter;stroke:rgb(0%,0%,0%);stroke-opacity:1;stroke-miterlimit:10;" d="M 158.449219 107.144531 L 167.644531 125.226562 "/>
<path style="fill:none;stroke-width:1.2;stroke-linecap:butt;stroke-linejoin:miter;stroke:rgb(0%,0%,0%);stroke-opacity:1;stroke-miterlimit:10;" d="M 165.808594 86.335938 L 151.984375 107.589844 "/>
<path style="fill:none;stroke-width:1.2;stroke-linecap:butt;stroke-linejoin:miter;stroke:rgb(0%,0%,0%);stroke-opacity:1;stroke-miterlimit:10;" d="M 163.476562 130.191406 L 176.136719 130.863281 "/>
<path style="fill:none;stroke-width:1.2;stroke-linecap:butt;stroke-linejoin:miter;stroke:rgb(0%,0%,100%);stroke-opacity:1;stroke-miterlimit:10;" d="M 176.136719 130.863281 L 188.796875 131.535156 "/>
<path style="fill:none;stroke-width:1.2;stroke-linecap:butt;stroke-linejoin:miter;stroke:rgb(0%,0%,0%);stroke-opacity:1;stroke-miterlimit:10;" d="M 163.476562 130.191406 L 154.507812 139.148438 "/>
<path style="fill:none;stroke-width:1.2;stroke-linecap:butt;stroke-linejoin:miter;stroke:rgb(0%,0%,100%);stroke-opacity:1;stroke-miterlimit:10;" d="M 154.507812 139.148438 L 145.535156 148.105469 "/>
<path style="fill:none;stroke-width:1.2;stroke-linecap:butt;stroke-linejoin:miter;stroke:rgb(0%,0%,100%);stroke-opacity:1;stroke-miterlimit:10;" d="M 188.796875 131.535156 L 195.707031 120.90625 "/>
<path style="fill:none;stroke-width:1.2;stroke-linecap:butt;stroke-linejoin:miter;stroke:rgb(0%,0%,0%);stroke-opacity:1;stroke-miterlimit:10;" d="M 195.707031 120.90625 L 202.621094 110.28125 "/>
<path style="fill:none;stroke-width:1.2;stroke-linecap:butt;stroke-linejoin:miter;stroke:rgb(0%,0%,100%);stroke-opacity:1;stroke-miterlimit:10;" d="M 185.175781 126.15625 L 190.707031 117.65625 "/>
<path style="fill:none;stroke-width:1.2;stroke-linecap:butt;stroke-linejoin:miter;stroke:rgb(0%,0%,0%);stroke-opacity:1;stroke-miterlimit:10;" d="M 190.707031 117.65625 L 196.238281 109.152344 "/>
<path style=" stroke:none;fill-rule:nonzero;fill:rgb(100%,100%,100%);fill-opacity:1;" d="M 185.796875 126.035156 L 192.796875 126.035156 L 192.796875 137.035156 L 185.796875 137.035156 Z M 185.796875 126.035156 "/>
<g style="fill:rgb(0%,0%,100%);fill-opacity:1;">
  <use xlink:href="#glyph0-2" x="185.796875" y="134.698242"/>
</g>
<path style="fill:none;stroke-width:1.2;stroke-linecap:butt;stroke-linejoin:miter;stroke:rgb(0%,0%,0%);stroke-opacity:1;stroke-miterlimit:10;" d="M 202.621094 110.28125 L 196.871094 98.980469 "/>
<path style="fill:none;stroke-width:1.2;stroke-linecap:butt;stroke-linejoin:miter;stroke:rgb(0%,0%,100%);stroke-opacity:1;stroke-miterlimit:10;" d="M 196.871094 98.980469 L 191.125 87.683594 "/>
<path style="fill:none;stroke-width:1.2;stroke-linecap:butt;stroke-linejoin:miter;stroke:rgb(0%,0%,0%);stroke-opacity:1;stroke-miterlimit:10;" d="M 202.621094 110.28125 L 215.277344 110.953125 "/>
<path style="fill:none;stroke-width:1.2;stroke-linecap:butt;stroke-linejoin:miter;stroke:rgb(0%,0%,100%);stroke-opacity:1;stroke-miterlimit:10;" d="M 215.277344 110.953125 L 227.9375 111.625 "/>
<path style="fill:none;stroke-width:1.2;stroke-linecap:butt;stroke-linejoin:miter;stroke:rgb(0%,0%,100%);stroke-opacity:1;stroke-miterlimit:10;" d="M 191.125 87.683594 L 178.464844 87.011719 "/>
<path style="fill:none;stroke-width:1.2;stroke-linecap:butt;stroke-linejoin:miter;stroke:rgb(0%,0%,0%);stroke-opacity:1;stroke-miterlimit:10;" d="M 178.464844 87.011719 L 165.808594 86.335938 "/>
<path style="fill:none;stroke-width:1.2;stroke-linecap:butt;stroke-linejoin:miter;stroke:rgb(0%,0%,100%);stroke-opacity:1;stroke-miterlimit:10;" d="M 188.277344 93.503906 L 178.148438 92.96875 "/>
<path style="fill:none;stroke-width:1.2;stroke-linecap:butt;stroke-linejoin:miter;stroke:rgb(0%,0%,0%);stroke-opacity:1;stroke-miterlimit:10;" d="M 178.148438 92.96875 L 168.023438 92.429688 "/>
<path style=" stroke:none;fill-rule:nonzero;fill:rgb(100%,100%,100%);fill-opacity:1;" d="M 188.125 82.183594 L 195.125 82.183594 L 195.125 93.183594 L 188.125 93.183594 Z M 188.125 82.183594 "/>
<g style="fill:rgb(0%,0%,100%);fill-opacity:1;">
  <use xlink:href="#glyph0-2" x="188.125" y="90.84668"/>
</g>
<path style="fill:none;stroke-width:1.2;stroke-linecap:butt;stroke-linejoin:miter;stroke:rgb(0%,0%,100%);stroke-opacity:1;stroke-miterlimit:10;" d="M 227.9375 111.625 L 233.683594 122.925781 "/>
<path style="fill:none;stroke-width:1.2;stroke-linecap:butt;stroke-linejoin:miter;stroke:rgb(0%,0%,0%);stroke-opacity:1;stroke-miterlimit:10;" d="M 233.683594 122.925781 L 239.433594 134.226562 "/>
<path style=" stroke:none;fill-rule:nonzero;fill:rgb(100%,100%,100%);fill-opacity:1;" d="M 220.9375 106.125 L 234.9375 106.125 L 234.9375 117.125 L 220.9375 117.125 Z M 220.9375 106.125 "/>
<g style="fill:rgb(0%,0%,100%);fill-opacity:1;">
  <use xlink:href="#glyph0-2" x="220.9375" y="114.788086"/>
  <use xlink:href="#glyph0-3" x="227.915039" y="114.788086"/>
</g>
<path style="fill:none;stroke-width:1.2;stroke-linecap:butt;stroke-linejoin:miter;stroke:rgb(0%,0%,0%);stroke-opacity:1;stroke-miterlimit:10;" d="M 239.433594 134.226562 L 264.75 135.570312 "/>
<path style="fill:none;stroke-width:1.2;stroke-linecap:butt;stroke-linejoin:miter;stroke:rgb(0%,0%,100%);stroke-opacity:1;stroke-miterlimit:10;" d="M 145.535156 148.105469 L 147.511719 160.625 "/>
<path style="fill:none;stroke-width:1.2;stroke-linecap:butt;stroke-linejoin:miter;stroke:rgb(0%,0%,0%);stroke-opacity:1;stroke-miterlimit:10;" d="M 147.511719 160.625 L 149.484375 173.148438 "/>
<path style=" stroke:none;fill-rule:nonzero;fill:rgb(100%,100%,100%);fill-opacity:1;" d="M 142.535156 142.605469 L 149.535156 142.605469 L 149.535156 153.605469 L 142.535156 153.605469 Z M 142.535156 142.605469 "/>
<g style="fill:rgb(0%,0%,100%);fill-opacity:1;">
  <use xlink:href="#glyph0-2" x="142.535156" y="151.268555"/>
</g>
<path style="fill:none;stroke-width:1.2;stroke-linecap:butt;stroke-linejoin:miter;stroke:rgb(0%,0%,0%);stroke-opacity:1;stroke-miterlimit:10;" d="M 149.484375 173.148438 L 172.066406 184.675781 "/>
<path style="fill:none;stroke-width:1.2;stroke-linecap:butt;stroke-linejoin:miter;stroke:rgb(0%,0%,0%);stroke-opacity:1;stroke-miterlimit:10;" d="M 131.542969 191.0625 L 149.484375 173.148438 "/>
<path style="fill:none;stroke-width:1.2;stroke-linecap:butt;stroke-linejoin:miter;stroke:rgb(0%,0%,0%);stroke-opacity:1;stroke-miterlimit:10;" d="M 172.066406 184.675781 L 168.082031 209.714844 "/>
<path style="fill:none;stroke-width:1.2;stroke-linecap:butt;stroke-linejoin:miter;stroke:rgb(0%,0%,0%);stroke-opacity:1;stroke-miterlimit:10;" d="M 168.082031 209.714844 L 143.039062 213.664062 "/>
<path style="fill:none;stroke-width:1.2;stroke-linecap:butt;stroke-linejoin:miter;stroke:rgb(0%,0%,0%);stroke-opacity:1;stroke-miterlimit:10;" d="M 143.039062 213.664062 L 131.542969 191.0625 "/>
</g>
</svg>

<svg xmlns="http://www.w3.org/2000/svg" xmlns:xlink="http://www.w3.org/1999/xlink" width="300pt" height="300pt" viewBox="0 0 300 300"><defs><symbol overflow="visible"><path d="M.453 1.594v-7.938h4.5v7.938zm.5-.5h3.5v-6.938h-3.5zm0 0"/></symbol><symbol overflow="visible" id="a"><path d="M.89-6.563h3.766v.75h-2.89v1.938h2.61v.734h-2.61V0H.89zm0 0"/></symbol><symbol overflow="visible" id="b"><path d="M.89-6.563H2.08l2.906 5.485v-5.484h.86V0H4.656L1.75-5.484V0H.89zm0 0"/></symbol><symbol overflow="visible" id="c"><path d="M.89-6.563h.876v2.688H5v-2.688h.89V0H5v-3.125H1.766V0H.89zm0 0"/></symbol></defs><g><path fill="#fff" d="M0 0h300v300H0z"/><path d="M55.16 171.06l.672-12.658" stroke-width="1.2" stroke="#3cc" stroke-miterlimit="10" fill="none"/><path d="M55.832 158.402l.672-12.66" stroke-width="1.2" stroke="#000" stroke-miterlimit="10" fill="none"/><path d="M52.16 165.56h6v11h-6zm0 0" fill="#fff"/><use xlink:href="#a" x="52.16" y="174.222" fill="#3cc"/><path d="M56.504 145.742L35.25 131.918M57.633 139.36L40.63 128.3M79.102 134.246l-22.598 11.496M35.25 131.918l1.344-25.32M36.594 106.598l22.6-11.493M41.56 110.766l18.077-9.196M59.195 95.105L80.45 108.93M80.45 108.93L79.1 134.246M74.355 111.145l-1.074 20.253M79.102 134.246l10.628 6.914" stroke-width="1.2" stroke="#000" stroke-miterlimit="10" fill="none"/><path d="M89.73 141.16l10.625 6.91M100.355 148.07l11.3-5.746" stroke-width="1.2" stroke="#00f" stroke-miterlimit="10" fill="none"/><path d="M111.656 142.324l11.297-5.746" stroke-width="1.2" stroke="#000" stroke-miterlimit="10" fill="none"/><path d="M93.355 142.57h14v11h-14zm0 0" fill="#fff"/><g fill="#00f"><use xlink:href="#b" x="93.355" y="151.233"/><use xlink:href="#c" x="100.333" y="151.233"/></g><path d="M122.953 136.578l1.992-12.52" stroke-width="1.2" stroke="#000" stroke-miterlimit="10" fill="none"/><path d="M124.945 124.06l1.993-12.52" stroke-width="1.2" stroke="#00f" stroke-miterlimit="10" fill="none"/><path d="M129.246 135.012l1.594-10.016" stroke-width="1.2" stroke="#000" stroke-miterlimit="10" fill="none"/><path d="M130.84 124.996l1.594-10.016M145.535 148.105l-11.29-5.765" stroke-width="1.2" stroke="#00f" stroke-miterlimit="10" fill="none"/><path d="M134.246 142.34l-11.293-5.762" stroke-width="1.2" stroke="#000" stroke-miterlimit="10" fill="none"/><path d="M126.938 111.54l12.523-1.974" stroke-width="1.2" stroke="#00f" stroke-miterlimit="10" fill="none"/><path d="M139.46 109.566l12.524-1.976" stroke-width="1.2" stroke="#000" stroke-miterlimit="10" fill="none"/><path d="M123.938 106.04h7v11h-7zm0 0" fill="#fff"/><use xlink:href="#b" x="123.938" y="114.702" fill="#00f"/><path d="M151.984 107.59l11.493 22.6M158.45 107.145l9.195 18.082M165.81 86.336l-13.826 21.254M163.477 130.19l12.66.673" stroke-width="1.2" stroke="#000" stroke-miterlimit="10" fill="none"/><path d="M176.137 130.863l12.66.672" stroke-width="1.2" stroke="#00f" stroke-miterlimit="10" fill="none"/><path d="M163.477 130.19l-8.97 8.958" stroke-width="1.2" stroke="#000" stroke-miterlimit="10" fill="none"/><path d="M154.508 139.148l-8.973 8.957M188.797 131.535l6.91-10.63" stroke-width="1.2" stroke="#00f" stroke-miterlimit="10" fill="none"/><path d="M195.707 120.906l6.914-10.625" stroke-width="1.2" stroke="#000" stroke-miterlimit="10" fill="none"/><path d="M185.176 126.156l5.53-8.5" stroke-width="1.2" stroke="#00f" stroke-miterlimit="10" fill="none"/><path d="M190.707 117.656l5.53-8.504" stroke-width="1.2" stroke="#000" stroke-miterlimit="10" fill="none"/><path d="M185.797 126.035h7v11h-7zm0 0" fill="#fff"/><use xlink:href="#b" x="185.797" y="134.698" fill="#00f"/><path d="M202.62 110.28l-5.75-11.3" stroke-width="1.2" stroke="#000" stroke-miterlimit="10" fill="none"/><path d="M196.87 98.98l-5.745-11.296" stroke-width="1.2" stroke="#00f" stroke-miterlimit="10" fill="none"/><path d="M202.62 110.28l12.657.673" stroke-width="1.2" stroke="#000" stroke-miterlimit="10" fill="none"/><path d="M215.277 110.953l12.66.672M191.125 87.684l-12.66-.672" stroke-width="1.2" stroke="#00f" stroke-miterlimit="10" fill="none"/><path d="M178.465 87.012l-12.656-.676" stroke-width="1.2" stroke="#000" stroke-miterlimit="10" fill="none"/><path d="M188.277 93.504l-10.13-.535" stroke-width="1.2" stroke="#00f" stroke-miterlimit="10" fill="none"/><path d="M178.148 92.97l-10.125-.54" stroke-width="1.2" stroke="#000" stroke-miterlimit="10" fill="none"/><path d="M188.125 82.184h7v11h-7zm0 0" fill="#fff"/><use xlink:href="#b" x="188.125" y="90.847" fill="#00f"/><path d="M227.938 111.625l5.746 11.3" stroke-width="1.2" stroke="#00f" stroke-miterlimit="10" fill="none"/><path d="M233.684 122.926l5.75 11.3" stroke-width="1.2" stroke="#000" stroke-miterlimit="10" fill="none"/><path d="M220.938 106.125h14v11h-14zm0 0" fill="#fff"/><g fill="#00f"><use xlink:href="#b" x="220.938" y="114.788"/><use xlink:href="#c" x="227.915" y="114.788"/></g><path d="M239.434 134.227l25.316 1.343" stroke-width="1.2" stroke="#000" stroke-miterlimit="10" fill="none"/><path d="M145.535 148.105l1.977 12.52" stroke-width="1.2" stroke="#00f" stroke-miterlimit="10" fill="none"/><path d="M147.512 160.625l1.972 12.523" stroke-width="1.2" stroke="#000" stroke-miterlimit="10" fill="none"/><path d="M142.535 142.605h7v11h-7zm0 0" fill="#fff"/><use xlink:href="#b" x="142.535" y="151.269" fill="#00f"/><path d="M149.484 173.148l22.582 11.528M131.543 191.063l17.94-17.915M172.066 184.676l-3.984 25.04M168.082 209.715l-25.043 3.95M143.04 213.664l-11.497-22.6" stroke-width="1.2" stroke="#000" stroke-miterlimit="10" fill="none"/></g></svg>
